X: 95
T: La Foire de brie
%R: reel
B: Stewart "A Select Collection of Airs, Jigs, Marches and Reels", ca.1784, p.46 #95
F: http://imslp.org/wiki/A_Select_Collection_of_Airs,_Jigs,_Marches_and_Reels_%28Various%29
Z: 2017 John Chambers <jc:trillian.mit.edu>
M: 2/4
L: 1/16
K: G
|: DEFD |\
G2G2G2G2 | D4 GDGB | AGAB cBcA | B2G2 DEFD |\
G2G2G2G2 | D4 dcBA | GFGA B2A2 | G4 :|
|: GABc |\
dcdf edef | g4 bagb | agfa gfeg | f2d2 GABc |\
dcdf edef | g4 bagf | e2d2 ^cdec | d4
DEFD |\
G2G2G2G2 | D4 GDGB | AGAB cBcA | B2G2 DEFD |\
G2G2G2G2 | D4 dcBA | GFGA B2A2 | G4 :|

%%sep 1 1 500
%%sep 1 1 500

